X:5
T:Diablo
C:Jocelyne Patenaude
N:Halloween Composition 2007
R:reel
M:4/4
L:1/8
K:Bmin
|: FBAB FE F2|FBAB c2c2|FBAB FE F2|dBcA B2B2|
FBAB FE F2| FBAB c2c2| FBAB FG F2| dBcA B4::
GBcd Bdcd |GBcd edcd | FBcd Bdcd | FBcd B2B2|
GBcd Bdcd |GBcd edcd | FBcd cdBd | fdec B4 :|
